X: 1
T: Brosna, The
M: 12/8
L: 1/8
R: slide
K: Dmix
B |: A2 D FED A2 F G2 B |  A2 D FED E2 F G2 B |
A2  D FED A2 F G2 B | A2 F GFE D3 D3 :|
d2 ^c A2 B =cBA G3 | d2 ^c ABc d2 e f2 e |
d2 ^c A2 B =cBA G2 B | A2 F GFE D3 D3 :|
